X: 147
T:The Street Player
R:Reel
C:Ed Reavy as a hornpipe apparently
D:Inishkeeragh- Brenda McCann
Z:Alf 
M:4/4
L:1/8
K:D
FE|DFAd ~f3 e|dcde fdAF|G2FG ~E3F|G2FG EFGE|
FGAG FGA=c|B2BA B^cde|gaag fecd|(3efe dc d2:|
de|fddc dfaf|gfed cdeg|~f3f gfed|cA BG AF GE|
FGAG FGA=c|B2BA B^cde|gaag fecd|(3efe d2 d2:|
